svg/cash_marker.svg

<svg xmlns="http://www.w3.org/2000/svg" viewBox="0 0 24 24"><path d="M18.5 16.8c-.7 0-1.2-.6-1.2-1.2 0-.7.6-1.2 1.2-1.2s1.2.6 1.2 1.2c.1.6-.5 1.2-1.2 1.2m0-4.8c-1.9 0-3.5 1.6-3.5 3.5 0 2.6 3.5 6.5 3.5 6.5s3.5-3.9 3.5-6.5c0-1.9-1.6-3.5-3.5-3.5m-3.6-.7C14.6 10 13.4 9 12 9c-1.7 0-3 1.3-3 3s1.3 3 3 3c.4 0 .7-.1 1-.2.2-1.4.9-2.6 1.9-3.5M13 16H7a2 2 0 0 0-2-2v-4a2 2 0 0 0 2-2h10a2 2 0 0 0 2 2s1 0 2 .6V6H3v12h10.5c-.2-.7-.4-1.3-.5-2"/></svg>

<?xml version="1.0" encoding="UTF-8"?><!DOCTYPE svg PUBLIC "-//W3C//DTD SVG 1.1//EN" "http://www.w3.org/Graphics/SVG/1.1/DTD/svg11.dtd"><svg xmlns="http://www.w3.org/2000/svg" xmlns:xlink="http://www.w3.org/1999/xlink" version="1.1" id="mdi-cash-marker" width="24" height="24" viewBox="0 0 24 24"><path d="M18.5,16.8C17.8,16.8 17.3,16.2 17.3,15.6C17.3,14.9 17.9,14.4 18.5,14.4C19.1,14.4 19.7,15 19.7,15.6C19.8,16.2 19.2,16.8 18.5,16.8M18.5,12C16.6,12 15,13.6 15,15.5C15,18.1 18.5,22 18.5,22C18.5,22 22,18.1 22,15.5C22,13.6 20.4,12 18.5,12M14.9,11.3C14.6,10 13.4,9 12,9C10.3,9 9,10.3 9,12C9,13.7 10.3,15 12,15C12.4,15 12.7,14.9 13,14.8C13.2,13.4 13.9,12.2 14.9,11.3M13,16H7A2,2 0 0,0 5,14V10A2,2 0 0,0 7,8H17A2,2 0 0,0 19,10C19,10 20,10 21,10.6V6H3V18H13.5C13.3,17.3 13.1,16.7 13,16Z" /></svg>
